frontend/icons/wysiwyg_bold.svg

<svg version="1.1" xmlns="http://www.w3.org/2000/svg" xmlns:xlink="http://www.w3.org/1999/xlink" x="0px" y="0px" width="12px"
   height="13px" viewBox="0 0 12 13" enable-background="new 0 0 12 13" xml:space="preserve">
  <title>wysiwyg_bold</title>
  <path fill="currentColor" d="M0.33105,12.4126c0.51318-0.01855,0.88135-0.08643,1.104-0.2041
        c0.37695-0.19775,0.56592-0.5752,0.56592-1.13184V1.87354c0-0.55273-0.17627-0.92432-0.52881-1.11475
        C1.26172,0.64209,0.88135,0.56836,0.33105,0.5376V0.05518h5.87256c1.13184,0,2.07178,0.12988,2.82031,0.38965
        c1.41016,0.48877,2.11523,1.37939,2.11523,2.67188c0,0.78564-0.28613,1.40869-0.8584,1.86914
        C9.70898,5.44678,9.08887,5.73926,8.4209,5.86279v0.17627c0.70508,0.13623,1.31738,0.36523,1.83691,0.68652
        c1.01416,0.63086,1.52148,1.50928,1.52148,2.63477c0,1.05176-0.48584,1.90332-1.45654,2.55615
        c-0.97119,0.65234-2.26367,0.97852-3.87793,0.97852H0.33105V12.4126z M7.40039,5.24121
        c0.40186-0.3833,0.60303-1.06348,0.60303-2.04102c0-0.72363-0.13135-1.33252-0.39453-1.82764
        c-0.2627-0.49463-0.76855-0.74219-1.5166-0.74219c-0.396,0-0.67139,0.06641-0.82568,0.19922
        c-0.15479,0.1333-0.23193,0.37305-0.23193,0.71924v4.26758C6.20947,5.81641,6.99805,5.625,7.40039,5.24121z M5.18311,11.87451
        c0.1543,0.27246,0.45117,0.4082,0.89062,0.4082c0.89648,0,1.52637-0.24414,1.8877-0.73291
        c0.3623-0.48828,0.54297-1.18408,0.54297-2.0874c0-1.34814-0.39893-2.24512-1.19678-2.69043
        C6.8252,6.5,6.06738,6.37305,5.03467,6.3916v4.75C5.04053,11.47559,5.09033,11.72021,5.18311,11.87451z"/>
</svg>

<svg id="b87e8504-0d1d-413e-836e-47040768a948" data-name="all icons" xmlns="http://www.w3.org/2000/svg" width="12" height="13" viewBox="0 0 12 13">
  <title>wysiwyg_bold</title>
  <path d="M.331,12.413a2.738,2.738,0,0,0,1.1-.205A1.157,1.157,0,0,0,2,11.077v-9.2A1.148,1.148,0,0,0,1.472.759,2.905,2.905,0,0,0,.331.538V.055H6.2a8.706,8.706,0,0,1,2.82.39,2.708,2.708,0,0,1,2.115,2.672,2.274,2.274,0,0,1-.858,1.869,4.14,4.14,0,0,1-1.86.877v.176a5.4,5.4,0,0,1,1.837.687,3.008,3.008,0,0,1,.065,5.191,6.853,6.853,0,0,1-3.878.978H.331ZM7.4,5.241A2.763,2.763,0,0,0,8,3.2a3.856,3.856,0,0,0-.394-1.827A1.558,1.558,0,0,0,6.092.63a1.285,1.285,0,0,0-.825.2.914.914,0,0,0-.232.719V5.816A3.521,3.521,0,0,0,7.4,5.241ZM5.183,11.875a.933.933,0,0,0,.891.408,2.2,2.2,0,0,0,1.887-.733A3.45,3.45,0,0,0,8.5,9.462a2.807,2.807,0,0,0-1.2-2.69,4.643,4.643,0,0,0-2.273-.38v4.75A1.529,1.529,0,0,0,5.183,11.875Z" fill="currentColor" />
</svg>
